X: 32818
T: Popcorn Behaviour
R: reel
M: 4/4
K: Aminor
|:(3e^f^g|"Am"a2 e=f ecAc|"Em"BABc B^GE2|"Am"AEAc "F"AFAc|"Em"BABc B2(3e^f^g|
"Am"a2 e=f ecAc|"Em"BABc B^GE2|"D"DFAc dcAF|1 "Am"Ecd"G"B "Am"A2:|2 "Am"EcdB A"G"B"Am"cd||
|:"Am"eAAe "F"fAAf|"Am"eAAe "G#dim"d^GGd|"Am"ABcd "F"eAfA|"C"gecd "G#dim"efed|
"Am"eAAe "F"fAAf|"F#dim"^fAAf "F"=fAA2|"D"DFAc dcAF|1 "Am"EcdB A"G"B"Am"cd:|2 "E"E2^G2 B2||

